X: 2
T: Barney Brannigan
R: slip jig
M: 9/8
L: 1/8
K: Dmaj
|: F2 A ABA ABA | F2 A ABA d2 f | F2 A ABA ABA |[1 B2 B e2 d cBA :|[2 B2 B Bcd ecA |||: f2 a f2 a f2 d | f2 a f2 a gfe | |: f3 a3 d3 | g2 f e2 d cBA |


Tune 1429	Setting 22877

